!!!COM: Paul Hindemith
!!!OTL: [T611_Hin-w2p3m1-7]
**kern	**kern	**dynam	**kern	**dynam
*grp:A	*grp:A	*grp:A	*grp:B	*grp:B
*part2	*part2	*part2	*part1	*part1
*staff3	*staff2	*	*staff1	*
*I"Piano	*	*	*I"Violoncello	*
*I'Pno.	*	*	*I'Vc.	*
*ICklav	*ICklav	*ICklav	*ICstr	*ICstr
*Ipiano	*Ipiano	*Ipiano	*Icello	*Icello
*clefF4	*clefF4	*	*clefF4	*
*k[f#c#g#d#a#]	*k[f#c#g#d#a#]	*	*k[f#c#g#d#a#]	*
*B:	*B:	*	*B:	*
*M9/8	*M9/8	*	*M9/8	*
=1	=1	=1	=1	=1
*	*	*	*Xtuplet	*
!	!	!	!LO:TX:t=[quarter-dot]/[quarter]=50	!
!	!	!	!LO:TX:a:B:t=Mäßig langsam	!
!	!	!	!LO:TX:t=P:problem=time signature includes 3/4 beside 9/8	!
8r	8%9r	.	8%3.ryy	4ryy
((8BBL	.	p	.	.
8FF#J	.	.	.	.
8BBBL)	.	.	.	.
(8BB	.	.	.	.
.	.	.	16%3ryy	.
8FF#J	.	.	.	.
8AAA#L)	.	.	8%3ryy	.
(8BB	.	.	.	.
8FF#J	.	.	.	.
=2	=2	=2	=2	=2
*Xtuplet	*Xtuplet	*	*	*
!	!LO:TX:b:i:t=sempre legato	!	!	!
8%3GGG#))	8r	.	8ryy	.
.	8BL	.	8ryy	.
.	8G#J	.	8ryy	.
8%3GG#	8BBL	.	8%3ryy	.
.	8B	.	.	.
.	8G#J	.	.	.
8%3FF#	8BBL	.	8%3ryy	.
.	8B	.	.	.
.	8G#J	.	.	.
=3	=3	=3	=3	=3
4%3EE	8BBL	.	8%3ryy	.
.	8B	.	.	.
.	8G#J	.	.	.
.	8BBL	<	8%3.ryy	4ryy
.	8B	.	.	.
.	8F#J	.	.	.
8%3DD#	8BBL	.	.	.
.	8B	.	.	.
.	.	.	16%3ryy	.
.	8EJ	.	.	.
=4	=4	=4	=4	=4
4%3CC#	8BBL	.	8%3ryy	.
.	8D#	.	.	.
.	8C#J	.	.	.
.	8F#L	.	16%3ryy	.
.	8E	.	.	.
.	.	.	16%3ryy	4ryy
.	8BJ	[	.	.
8%3FF#	8A#L	.	16%3ryy	.
.	8G#	.	.	.
.	.	.	16%3ryy	.
.	8GnJ	.	.	.
=5	=5	=5	=5	=5
8%3.BB	8F#L	.	16%3ryy	4ryy
.	8c# 8e	.	.	.
.	.	.	16%3ryy	4ryy
.	8BJ 8d#	<	.	.
*	*clefG2	*	*	*
.	8eL 8g#	.	8%3ryy	.
.	8d# 8f#	.	.	.
16%3AA#	.	.	.	.
.	8a#J 8cc#	.	.	.
16%3GG#L	8eL 8g#	.	8%3ryy	.
.	8b 8dd#	.	.	.
16%3FF#J	.	.	.	.
.	8f#J 8a#	.	.	.
=6	=6	=6	=6	=6
8EEL	[4.g# [4.ee [4.gg#	mf	8%3.ryy	.
8BB	.	.	.	.
8EJ	.	.	.	.
8G#L	8g#L] 8ee] 8gg#]	.	.	.
8F#	8an 8aan	.	.	.
.	.	.	16%3ryy	.
8EJ	8g#J 8gg#	.	.	.
4D#	8f#L 8ff#	.	8%3ryy	.
.	8e 8ee	.	.	.
8GG#	8d#J 8dd#	.	.	.
=7	=7	=7	=7	=7
*	*Xtuplet	*	*	*
8CC#L	16%3c#L 16%3cc#	.	8ryy	.
8E#X	.	.	8ryy	.
.	16%3ccc#J	.	.	.
8d#J	.	.	8ryy	.
8c#L	[4.aa#X	<	8%3ryy	.
*clefG2	*	*	*	*
8e#X	.	.	.	.
8a#J	.	.	.	.
8g#L	8aa#L]	.	8%3ryy	.
8c#	8gg#	.	.	.
8G#J	8ee#XJ	.	.	.
=	=	=	=	=
*-	*-	*-	*-	*-
!!!system-decoration: s1[({(s2,s3)})]
!!!RDF**kern: i = editorial accidental, paren
!!!EED2: Rafael Laurindo
!!!EEV2: 2022/02/18
